newicons/emoji_rounded_symbol_for_fu.svg

<?xml version="1.0" encoding="UTF-8" standalone="no"?>
<svg
   version="1.2"
   viewBox="0 0 48 48"
   id="svg7"
   xmlns="http://www.w3.org/2000/svg"
   xmlns:svg="http://www.w3.org/2000/svg">
  <defs
     id="defs1" />
  <path
     d="M 26.303571,6.4928577 A 17.660714,17.660714 0 0 1 37.360714,12.482143"
     fill="none"
     stroke="#ffffff"
     stroke-linecap="round"
     stroke-linejoin="round"
     stroke-width="1"
     id="path1"
     style="stroke-width:1;stroke-dasharray:none" />
  <path
     d="M 26.303571,41.507143 A 17.660714,17.660714 0 0 0 41.507143,26.303572 H 26.303571 v 15.203571 m 0,-9.060715 H 39.357142 M 30.910714,26.303572 V 40.125"
     fill="none"
     stroke="#ffffff"
     stroke-linecap="round"
     stroke-linejoin="round"
     stroke-width="1"
     id="path2"
     style="stroke-width:1;stroke-dasharray:none" />
  <path
     d="M 26.303571,21.696429 H 41.507143 A 17.660714,17.660714 0 0 0 39.433928,15.553572 H 26.303571 v 6.142857"
     fill="none"
     stroke="#ffffff"
     stroke-linecap="round"
     stroke-linejoin="round"
     stroke-width="1"
     id="path3"
     style="stroke-width:1;stroke-dasharray:none" />
  <path
     d="M 21.696429,17.089286 V 6.4928577 A 17.660714,17.660714 0 0 0 7.6446428,17.089286"
     fill="none"
     stroke="#ffffff"
     stroke-linecap="round"
     stroke-linejoin="round"
     stroke-width="1"
     id="path4"
     style="stroke-width:1;stroke-dasharray:none" />
  <path
     d="M 21.696429,41.507143 V 21.696429 H 6.4928572 a 17.660714,17.660714 0 0 0 1.3821426,9.214286"
     fill="none"
     stroke="#ffffff"
     stroke-linecap="round"
     stroke-linejoin="round"
     stroke-width="1"
     id="path5"
     style="stroke-width:1;stroke-dasharray:none" />
  <path
     d="M 14.785714,21.696429 V 38.973214"
     fill="none"
     stroke="#ffffff"
     stroke-linecap="round"
     stroke-linejoin="round"
     stroke-width="1"
     id="path6"
     style="stroke-width:1;stroke-dasharray:none" />
  <path
     d="m 2.5,24 a 21.5,21.5 0 1 0 43,0 21.5,21.5 0 1 0 -43,0"
     fill="none"
     stroke="#ffffff"
     stroke-linecap="round"
     stroke-linejoin="round"
     stroke-width="1"
     id="path7"
     style="stroke-width:1;stroke-dasharray:none" />
</svg>

<?xml version="1.0" encoding="UTF-8"?><svg id="a" xmlns="http://www.w3.org/2000/svg" viewBox="0 0 48 48"><defs><style>.i{fill:none;stroke:#fff;stroke-linecap:round;stroke-linejoin:round;}</style></defs><path id="b" class="i" d="M26.3036,6.4929c4.2957.5722,8.2311,2.7039,11.0571,5.9893"/><path id="c" class="i" d="M26.3036,41.5071c7.9243-1.0436,14.16-7.2792,15.2036-15.2036h-15.2036v15.2036M26.3036,32.4464h13.0536M30.9107,26.3036v13.8214"/><path id="d" class="i" d="M26.3036,21.6964h15.2036c-.3061-2.158-1.009-4.2407-2.0732-6.1429h-13.1304v6.1429"/><path id="e" class="i" d="M21.6964,17.0893V6.4929c-6.2356.7805-11.5867,4.8158-14.0518,10.5964"/><path id="f" class="i" d="M21.6964,41.5071v-19.8107H6.4929c-.3724,3.1398.1049,6.322,1.3821,9.2143"/><path id="g" class="i" d="M14.7857,21.6964v17.2768"/><path id="h" class="i" d="M2.5,24c0,11.8741,9.6259,21.5,21.5,21.5s21.5-9.6259,21.5-21.5S35.8741,2.5,24,2.5,2.5,12.1259,2.5,24"/></svg>
